source/img/logo.svg

<svg width="60" height="60" viewBox="0 0 60 60" fill="none" xmlns="http://www.w3.org/2000/svg">
<g filter="url(#filter0_d)">
<path d="M36.0668 13.8665C37.1952 13.8665 38.1485 14.5936 38.5073 15.5998H47.4929C47.8517 14.5936 48.805 13.8665 49.9334 13.8665C51.3669 13.8665 52.5334 15.033 52.5334 16.4664C52.5334 17.8999 51.3669 19.0664 49.9334 19.0664C48.805 19.0664 47.8517 18.3392 47.4929 17.3331H38.5064C38.1476 18.3392 37.1943 19.0664 36.0659 19.0664C34.6324 19.0664 33.4659 17.8999 33.4659 16.4664C33.4659 15.033 34.6333 13.8665 36.0668 13.8665ZM49.9334 17.3331C50.411 17.3331 50.8001 16.9448 50.8001 16.4664C50.8001 15.988 50.411 15.5998 49.9334 15.5998C49.4559 15.5998 49.0668 15.988 49.0668 16.4664C49.0668 16.9448 49.4559 17.3331 49.9334 17.3331ZM36.0668 17.3331C36.5443 17.3331 36.9334 16.9448 36.9334 16.4664C36.9334 15.988 36.5443 15.5998 36.0668 15.5998C35.5892 15.5998 35.2001 15.988 35.2001 16.4664C35.2001 16.9448 35.5892 17.3331 36.0668 17.3331Z" fill="#00B2FF"/>
<path d="M29.1333 19.2259V13.8665C29.1333 13.636 29.2243 13.4158 29.3872 13.2538L32.8539 9.78716C33.0159 9.62423 33.2369 9.53323 33.4666 9.53323H36.2261C36.5849 8.52705 37.5382 7.79993 38.6666 7.79993C40.1001 7.79993 41.2666 8.96644 41.2666 10.3999C41.2666 11.8333 40.1001 12.9998 38.6666 12.9998C37.5382 12.9998 36.5849 12.2727 36.2261 11.2665H33.8254L30.8666 14.2253V19.2259C31.8728 19.5847 32.5999 20.538 32.5999 21.6664C32.5999 23.0998 31.4334 24.2663 29.9999 24.2663C28.5665 24.2663 27.3999 23.0998 27.3999 21.6664C27.3999 20.538 28.1271 19.5847 29.1333 19.2259ZM38.6666 11.2665C39.1441 11.2665 39.5333 10.8783 39.5333 10.3999C39.5333 9.92149 39.1441 9.53323 38.6666 9.53323C38.1891 9.53323 37.7999 9.92149 37.7999 10.3999C37.7999 10.8783 38.1891 11.2665 38.6666 11.2665ZM29.9999 22.533C30.4775 22.533 30.8666 22.1448 30.8666 21.6664C30.8666 21.188 30.4775 20.7997 29.9999 20.7997C29.5224 20.7997 29.1333 21.188 29.1333 21.6664C29.1333 22.1448 29.5224 22.533 29.9999 22.533Z" fill="#00B2FF"/>
<path d="M13.5333 22.533C13.9337 22.533 14.3081 22.6309 14.647 22.7938L16.1333 21.3075V12.9998C16.1333 12.7693 16.2243 12.5491 16.3873 12.3871L25.0609 3.7136C24.8979 3.37474 24.8 3.00035 24.8 2.59996C24.8 1.16651 25.9665 0 27.4 0C28.8335 0 30 1.16651 30 2.59996C30 4.0334 28.8335 5.19991 27.4 5.19991C26.9996 5.19991 26.6252 5.10198 26.2863 4.93905L17.8667 13.3586V21.6663C17.8667 21.8968 17.7757 22.117 17.6127 22.279L15.8725 24.0193C16.0354 24.3581 16.1333 24.7325 16.1333 25.1329C16.1333 26.5664 14.9668 27.7329 13.5333 27.7329C12.0999 27.7329 10.9333 26.5664 10.9333 25.1329C10.9333 23.6995 12.0999 22.533 13.5333 22.533ZM27.4 3.46661C27.8775 3.46661 28.2667 3.07835 28.2667 2.59996C28.2667 2.12156 27.8775 1.7333 27.4 1.7333C26.9225 1.7333 26.5333 2.12156 26.5333 2.59996C26.5333 3.07835 26.9225 3.46661 27.4 3.46661ZM13.5333 25.9996C14.0109 25.9996 14.4 25.6113 14.4 25.1329C14.4 24.6545 14.0109 24.2663 13.5333 24.2663C13.0558 24.2663 12.6667 24.6545 12.6667 25.1329C12.6667 25.6113 13.0558 25.9996 13.5333 25.9996Z" fill="#00B2FF"/>
<path d="M5.73328 12.2926V8.66652C5.73328 8.43599 5.82428 8.21586 5.98722 8.0538L12.0539 1.98723C12.216 1.8243 12.437 1.7333 12.6666 1.7333H17.1594C17.5182 0.727121 18.4716 0 19.6 0C21.0334 0 22.2 1.16651 22.2 2.59996C22.2 4.0334 21.0334 5.19991 19.6 5.19991C18.4716 5.19991 17.5182 4.47279 17.1594 3.46661H13.0254L7.46662 9.02532V12.2926C8.47282 12.6514 9.19995 13.6047 9.19995 14.7331C9.19995 16.1665 8.03342 17.333 6.59995 17.333C5.16648 17.333 3.99995 16.1665 3.99995 14.7331C3.99995 13.6047 4.72709 12.6514 5.73328 12.2926ZM19.6 3.46661C20.0775 3.46661 20.4666 3.07835 20.4666 2.59996C20.4666 2.12156 20.0775 1.7333 19.6 1.7333C19.1224 1.7333 18.7333 2.12156 18.7333 2.59996C18.7333 3.07835 19.1224 3.46661 19.6 3.46661ZM6.59995 15.5997C7.07748 15.5997 7.46662 15.2115 7.46662 14.7331C7.46662 14.2547 7.07748 13.8664 6.59995 13.8664C6.12242 13.8664 5.73328 14.2547 5.73328 14.7331C5.73328 15.2115 6.12242 15.5997 6.59995 15.5997Z" fill="#00B2FF"/>
<path d="M17.8658 46.9595V34.5066C16.8604 34.1478 16.1333 33.1945 16.1333 32.0661C16.1333 30.6327 17.2998 29.4661 18.7333 29.4661C19.8617 29.4661 20.815 30.1933 21.1738 31.1995H30.1594C30.5182 30.1933 31.4716 29.4661 32.6 29.4661C33.7284 29.4661 34.6817 30.1933 35.0405 31.1995H40.0412L43.2608 27.9798C43.0979 27.641 43 27.2666 43 26.8662C43 25.4327 44.1665 24.2662 45.6 24.2662C47.0334 24.2662 48.2 25.4327 48.2 26.8662C48.2 28.2996 47.0334 29.4661 45.6 29.4661C45.1996 29.4661 44.8252 29.3682 44.4863 29.2053L41.0127 32.6788C40.8506 32.8418 40.6296 32.9328 40.4 32.9328H35.0405C34.6817 33.9389 33.7284 34.6661 32.6 34.6661C31.4716 34.6661 30.5182 33.9389 30.1594 32.9328H21.173C20.9112 33.6668 20.3332 34.2449 19.5991 34.5066V46.9595C20.6053 47.3183 21.3324 48.2716 21.3324 49.4C21.3324 50.8335 20.1659 52 18.7324 52C17.299 52 16.1324 50.8335 16.1324 49.4C16.1324 48.2716 16.8596 47.3183 17.8658 46.9595ZM45.6 27.7328C46.0775 27.7328 46.4666 27.3446 46.4666 26.8662C46.4666 26.3878 46.0775 25.9995 45.6 25.9995C45.1224 25.9995 44.7333 26.3878 44.7333 26.8662C44.7333 27.3446 45.1224 27.7328 45.6 27.7328ZM32.6 32.9328C33.0775 32.9328 33.4666 32.5445 33.4666 32.0661C33.4666 31.5877 33.0775 31.1995 32.6 31.1995C32.1224 31.1995 31.7333 31.5877 31.7333 32.0661C31.7333 32.5445 32.1224 32.9328 32.6 32.9328ZM18.7333 50.2658C19.2108 50.2658 19.6 49.8775 19.6 49.3991C19.6 48.9208 19.2108 48.5325 18.7333 48.5325C18.2558 48.5325 17.8666 48.9208 17.8666 49.3991C17.8666 49.8775 18.2558 50.2658 18.7333 50.2658ZM18.7333 32.9328C19.2108 32.9328 19.6 32.5445 19.6 32.0661C19.6 31.5877 19.2108 31.1995 18.7333 31.1995C18.2558 31.1995 17.8666 31.5877 17.8666 32.0661C17.8666 32.5445 18.2558 32.9328 18.7333 32.9328Z" fill="#00B2FF"/>
<path d="M22.2 17.4925V14.7331C22.2 14.5026 22.291 14.2824 22.4539 14.1204L32.8609 3.7136C32.6979 3.37474 32.6 3.00035 32.6 2.59996C32.6 1.16651 33.7665 0 35.2 0C36.3284 0 37.2817 0.727121 37.6405 1.7333H41.2667C41.7451 1.7333 42.1333 2.1207 42.1333 2.59996V4.84112L45.353 8.06073C45.6919 7.8978 46.0663 7.79987 46.4667 7.79987C47.9001 7.79987 49.0667 8.96638 49.0667 10.3998C49.0667 11.8333 47.9001 12.9998 46.4667 12.9998C45.0332 12.9998 43.8667 11.8333 43.8667 10.3998C43.8667 9.99943 43.9646 9.62504 44.1275 9.28618L40.6539 5.81264C40.491 5.65057 40.4 5.43044 40.4 5.19991V3.46661H37.6405C37.2817 4.47279 36.3284 5.19991 35.2 5.19991C34.7996 5.19991 34.4252 5.10198 34.0863 4.93905L23.9333 15.0919V17.4925C24.9395 17.8513 25.6667 18.8046 25.6667 19.933C25.6667 21.3664 24.5001 22.533 23.0667 22.533C21.6332 22.533 20.4667 21.3664 20.4667 19.933C20.4667 18.8046 21.1938 17.8513 22.2 17.4925ZM46.4667 11.2665C46.9442 11.2665 47.3333 10.8782 47.3333 10.3998C47.3333 9.92143 46.9442 9.53317 46.4667 9.53317C45.9891 9.53317 45.6 9.92143 45.6 10.3998C45.6 10.8782 45.9891 11.2665 46.4667 11.2665ZM35.2 3.46661C35.6775 3.46661 36.0667 3.07835 36.0667 2.59996C36.0667 2.12156 35.6775 1.7333 35.2 1.7333C34.7225 1.7333 34.3333 2.12156 34.3333 2.59996C34.3333 3.07835 34.7225 3.46661 35.2 3.46661ZM23.0667 20.7997C23.5442 20.7997 23.9333 20.4114 23.9333 19.933C23.9333 19.4546 23.5442 19.0663 23.0667 19.0663C22.5891 19.0663 22.2 19.4546 22.2 19.933C22.2 20.4114 22.5891 20.7997 23.0667 20.7997Z" fill="#00B2FF"/>
<path d="M24.8 24.2663C25.9284 24.2663 26.8817 24.9934 27.2405 25.9996H37.4412L42.3873 21.0536C42.5493 20.8906 42.7703 20.7997 43 20.7997H52.1745L54.2667 18.7076V11.6253L47.5803 4.93905C47.2415 5.10198 46.8671 5.19991 46.4667 5.19991C45.0332 5.19991 43.8667 4.0334 43.8667 2.59996C43.8667 1.16651 45.0332 0 46.4667 0C47.9001 0 49.0667 1.16651 49.0667 2.59996C49.0667 3.00035 48.9687 3.37474 48.8058 3.7136L55.7461 10.6538C55.909 10.8158 56 11.0359 56 11.2665V19.0663C56 19.2969 55.909 19.517 55.7461 19.6791L53.1461 22.279C52.984 22.442 52.763 22.533 52.5333 22.533H43.3588L38.4127 27.4789C38.2507 27.6419 38.0297 27.7329 37.8 27.7329H27.2405C26.8817 28.7391 25.9284 29.4662 24.8 29.4662C23.3665 29.4662 22.2 28.2997 22.2 26.8662C22.2 25.4328 23.3665 24.2663 24.8 24.2663ZM46.4667 1.7333C45.9891 1.7333 45.6 2.12156 45.6 2.59996C45.6 3.07835 45.9891 3.46661 46.4667 3.46661C46.9442 3.46661 47.3333 3.07835 47.3333 2.59996C47.3333 2.12156 46.9442 1.7333 46.4667 1.7333ZM24.8 27.7329C25.2775 27.7329 25.6667 27.3446 25.6667 26.8662C25.6667 26.3878 25.2775 25.9996 24.8 25.9996C24.3225 25.9996 23.9333 26.3878 23.9333 26.8662C23.9333 27.3446 24.3225 27.7329 24.8 27.7329Z" fill="#00B2FF"/>
<path d="M6.59997 20.7997C7.00037 20.7997 7.37477 20.8976 7.71363 21.0606L10.9333 17.841V12.8404C9.9271 12.4816 9.19997 11.5283 9.19997 10.3999C9.19997 8.96644 10.3665 7.79993 11.8 7.79993C13.2334 7.79993 14.4 8.96644 14.4 10.3999C14.4 11.5283 13.6728 12.4816 12.6666 12.8404V18.1998C12.6666 18.4303 12.5756 18.6504 12.4127 18.8125L8.9391 22.286C9.10204 22.6249 9.19997 22.9993 9.19997 23.3997C9.19997 24.528 8.47283 25.4814 7.46663 25.8402V26.5075L14.146 33.1868C14.309 33.3488 14.4 33.569 14.4 33.7995V34.8256C15.4062 35.1844 16.1333 36.1377 16.1333 37.2661C16.1333 38.3945 15.4062 39.3478 14.4 39.7066V41.7597C15.4062 42.1185 16.1333 43.0718 16.1333 44.2002C16.1333 45.6336 14.9668 46.8001 13.5333 46.8001C12.0998 46.8001 10.9333 45.6336 10.9333 44.2002C10.9333 43.0718 11.6604 42.1185 12.6666 41.7597V39.7066C11.6604 39.3478 10.9333 38.3945 10.9333 37.2661C10.9333 36.1377 11.6604 35.1844 12.6666 34.8256V34.1583L5.98723 27.479C5.8243 27.3169 5.7333 27.0968 5.7333 26.8663V25.8402C4.7271 25.4814 3.99997 24.528 3.99997 23.3997C3.99997 21.9662 5.1665 20.7997 6.59997 20.7997ZM11.8 11.2665C12.2775 11.2665 12.6666 10.8783 12.6666 10.3999C12.6666 9.92149 12.2775 9.53323 11.8 9.53323C11.3224 9.53323 10.9333 9.92149 10.9333 10.3999C10.9333 10.8783 11.3224 11.2665 11.8 11.2665ZM13.5333 45.066C14.0108 45.066 14.4 44.6777 14.4 44.1993C14.4 43.7209 14.0108 43.3327 13.5333 43.3327C13.0558 43.3327 12.6666 43.7209 12.6666 44.1993C12.6666 44.6777 13.0558 45.066 13.5333 45.066ZM13.5333 38.1328C14.0108 38.1328 14.4 37.7445 14.4 37.2661C14.4 36.7877 14.0108 36.3995 13.5333 36.3995C13.0558 36.3995 12.6666 36.7877 12.6666 37.2661C12.6666 37.7445 13.0558 38.1328 13.5333 38.1328ZM6.59997 24.2663C7.0775 24.2663 7.46663 23.8781 7.46663 23.3997C7.46663 22.9213 7.0775 22.533 6.59997 22.533C6.12243 22.533 5.7333 22.9213 5.7333 23.3997C5.7333 23.8781 6.12243 24.2663 6.59997 24.2663Z" fill="#00B2FF"/>
</g>
<defs>
<filter id="filter0_d" x="0" y="0" width="60" height="60" filterUnits="userSpaceOnUse" color-interpolation-filters="sRGB">
<feFlood flood-opacity="0" result="BackgroundImageFix"/>
<feColorMatrix in="SourceAlpha" type="matrix" values="0 0 0 0 0 0 0 0 0 0 0 0 0 0 0 0 0 0 127 0"/>
<feOffset dy="4"/>
<feGaussianBlur stdDeviation="2"/>
<feColorMatrix type="matrix" values="0 0 0 0 0 0 0 0 0 0 0 0 0 0 0 0 0 0 0.25 0"/>
<feBlend mode="normal" in2="BackgroundImageFix" result="effect1_dropShadow"/>
<feBlend mode="normal" in="SourceGraphic" in2="effect1_dropShadow" result="shape"/>
</filter>
</defs>
</svg>

<svg width="60" height="60" fill="none" xmlns="http://www.w3.org/2000/svg"><g filter="url(#filter0_d)" fill="#00B2FF"><path d="M36.067 13.867c1.128 0 2.081.727 2.44 1.733h8.986a2.596 2.596 0 012.44-1.733c1.434 0 2.6 1.166 2.6 2.6 0 1.433-1.166 2.6-2.6 2.6a2.597 2.597 0 01-2.44-1.734h-8.987a2.597 2.597 0 01-2.44 1.733 2.603 2.603 0 01-2.6-2.6c0-1.433 1.167-2.6 2.6-2.6zm13.866 3.466a.868.868 0 000-1.733.867.867 0 000 1.733zm-13.866 0a.868.868 0 10-.002-1.735.868.868 0 00.002 1.735z"/><path d="M29.133 19.226v-5.36c0-.23.091-.45.254-.612l3.467-3.467a.864.864 0 01.613-.254h2.76a2.596 2.596 0 012.44-1.733c1.433 0 2.6 1.166 2.6 2.6 0 1.433-1.167 2.6-2.6 2.6a2.596 2.596 0 01-2.44-1.733h-2.402l-2.958 2.958v5a2.596 2.596 0 011.733 2.441c0 1.434-1.167 2.6-2.6 2.6a2.603 2.603 0 01-2.6-2.6c0-1.128.727-2.081 1.733-2.44zm9.534-7.96a.868.868 0 10-.002-1.735.868.868 0 00.002 1.736zM30 22.534a.867.867 0 10-.002-1.735.867.867 0 00.002 1.735zm-16.467-.001c.4 0 .775.098 1.114.26l1.486-1.485V13c0-.23.091-.45.254-.613l8.674-8.673A2.556 2.556 0 0124.8 2.6c0-1.433 1.166-2.6 2.6-2.6C28.834 0 30 1.167 30 2.6s-1.166 2.6-2.6 2.6c-.4 0-.775-.098-1.114-.261l-8.42 8.42v8.307c0 .23-.09.451-.253.613l-1.74 1.74c.162.34.26.714.26 1.114 0 1.433-1.166 2.6-2.6 2.6a2.603 2.603 0 01-2.6-2.6c0-1.433 1.167-2.6 2.6-2.6zM27.4 3.467a.868.868 0 000-1.734.868.868 0 000 1.734zM13.533 26a.868.868 0 000-1.734.867.867 0 000 1.734zm-7.8-13.707V8.667c0-.231.091-.451.254-.613l6.067-6.067a.864.864 0 01.613-.254h4.492A2.597 2.597 0 0119.6 0c1.433 0 2.6 1.167 2.6 2.6s-1.167 2.6-2.6 2.6a2.597 2.597 0 01-2.44-1.733h-4.135L7.467 9.025v3.268a2.596 2.596 0 011.733 2.44c0 1.433-1.167 2.6-2.6 2.6a2.603 2.603 0 01-2.6-2.6c0-1.128.727-2.082 1.733-2.44zM19.6 3.467a.867.867 0 10-.002-1.735.867.867 0 00.002 1.735zM6.6 15.6a.867.867 0 10-.002-1.735A.867.867 0 006.6 15.6zm11.266 31.36V34.507a2.597 2.597 0 01-1.733-2.44c0-1.434 1.167-2.6 2.6-2.6 1.129 0 2.082.726 2.44 1.733h8.986a2.597 2.597 0 012.441-1.734c1.128 0 2.082.727 2.44 1.733h5.001l3.22-3.22A2.557 2.557 0 0143 26.867c0-1.433 1.166-2.6 2.6-2.6 1.433 0 2.6 1.167 2.6 2.6 0 1.434-1.167 2.6-2.6 2.6-.4 0-.775-.098-1.114-.26l-3.473 3.473a.864.864 0 01-.613.254h-5.36a2.597 2.597 0 01-2.44 1.733 2.597 2.597 0 01-2.44-1.733h-8.987a2.598 2.598 0 01-1.574 1.574V46.96a2.596 2.596 0 011.733 2.44c0 1.434-1.166 2.6-2.6 2.6a2.603 2.603 0 01-2.6-2.6c0-1.128.728-2.082 1.734-2.44zM45.6 27.732a.867.867 0 10-.002-1.735.867.867 0 00.002 1.735zm-13 5.2a.868.868 0 10-.002-1.735.868.868 0 00.002 1.735zM18.733 50.266a.868.868 0 000-1.733.868.868 0 000 1.733zm0-17.333a.868.868 0 000-1.733.868.868 0 000 1.733z"/><path d="M22.2 17.492v-2.759c0-.23.091-.45.254-.613L32.86 3.714A2.556 2.556 0 0132.6 2.6c0-1.433 1.166-2.6 2.6-2.6 1.128 0 2.082.727 2.44 1.733h3.627c.478 0 .866.388.866.867v2.241l3.22 3.22a2.556 2.556 0 011.114-.261c1.433 0 2.6 1.166 2.6 2.6 0 1.433-1.167 2.6-2.6 2.6a2.603 2.603 0 01-2.6-2.6c0-.4.098-.775.26-1.114l-3.473-3.473A.863.863 0 0140.4 5.2V3.467h-2.76A2.596 2.596 0 0135.2 5.2c-.4 0-.775-.098-1.114-.261L23.933 15.092v2.4a2.596 2.596 0 011.734 2.441c0 1.433-1.167 2.6-2.6 2.6a2.603 2.603 0 01-2.6-2.6c0-1.128.727-2.082 1.733-2.44zm24.267-6.226a.868.868 0 10-.002-1.735.868.868 0 00.002 1.736zM35.2 3.467a.868.868 0 000-1.733.868.868 0 000 1.734zM23.067 20.8a.868.868 0 10-.002-1.735.868.868 0 00.002 1.735z"/><path d="M24.8 24.266c1.128 0 2.082.727 2.44 1.734h10.201l4.946-4.946A.864.864 0 0143 20.8h9.175l2.092-2.092v-7.083L47.58 4.94c-.338.163-.713.26-1.113.26a2.603 2.603 0 01-2.6-2.599c0-1.433 1.166-2.6 2.6-2.6 1.433 0 2.6 1.167 2.6 2.6 0 .4-.098.775-.261 1.114l6.94 6.94a.863.863 0 01.254.613v7.8c0 .23-.091.45-.254.612l-2.6 2.6a.864.864 0 01-.613.254H43.36l-4.946 4.946a.864.864 0 01-.613.254H27.24a2.596 2.596 0 01-2.44 1.733 2.603 2.603 0 01-2.6-2.6c0-1.433 1.166-2.6 2.6-2.6zM46.467 1.733a.868.868 0 10.001 1.735.868.868 0 00-.001-1.735zm-21.667 26a.868.868 0 000-1.733.868.868 0 000 1.733zM6.6 20.8c.4 0 .775.098 1.114.26l3.22-3.219v-5A2.596 2.596 0 019.2 10.4c0-1.434 1.167-2.6 2.6-2.6s2.6 1.166 2.6 2.6a2.596 2.596 0 01-1.733 2.44v5.36c0 .23-.091.45-.254.613l-3.474 3.473c.163.339.261.713.261 1.114a2.597 2.597 0 01-1.733 2.44v.668l6.679 6.679a.863.863 0 01.254.613v1.026a2.596 2.596 0 011.733 2.44 2.596 2.596 0 01-1.733 2.44v2.054a2.596 2.596 0 011.733 2.44c0 1.434-1.166 2.6-2.6 2.6a2.603 2.603 0 01-2.6-2.6c0-1.128.727-2.082 1.734-2.44v-2.053a2.596 2.596 0 01-1.734-2.44c0-1.13.727-2.083 1.734-2.441v-.668l-6.68-6.679a.863.863 0 01-.254-.613V25.84A2.597 2.597 0 014 23.4c0-1.434 1.167-2.6 2.6-2.6zm5.2-9.534a.867.867 0 10-.002-1.734.867.867 0 00.002 1.735zm1.733 33.8a.868.868 0 000-1.733.868.868 0 000 1.733zm0-6.933a.868.868 0 000-1.733.868.868 0 000 1.733zM6.6 24.266a.867.867 0 10-.002-1.735.867.867 0 00.002 1.735z"/></g><defs><filter id="filter0_d" x="0" y="0" width="60" height="60" filterUnits="userSpaceOnUse" color-interpolation-filters="sRGB"><feFlood flood-opacity="0" result="BackgroundImageFix"/><feColorMatrix in="SourceAlpha" values="0 0 0 0 0 0 0 0 0 0 0 0 0 0 0 0 0 0 127 0"/><feOffset dy="4"/><feGaussianBlur stdDeviation="2"/><feColorMatrix values="0 0 0 0 0 0 0 0 0 0 0 0 0 0 0 0 0 0 0.25 0"/><feBlend in2="BackgroundImageFix" result="effect1_dropShadow"/><feBlend in="SourceGraphic" in2="effect1_dropShadow" result="shape"/></filter></defs></svg>
